_inc/systems/logos/library.svg

<?xml version="1.0" encoding="utf-8"?>
<svg viewBox="0 0 1367.2 328.1" version="1.1" xmlns="http://www.w3.org/2000/svg">
  <path fill="#ffffff" stroke="#ffffff" stroke-width="0.09375" opacity="1.00" d="M 77.265 0.61 C 80.065 0.21 82.965 0.11 85.865 0.01 C 479.465 0.01 873.165 0.01 1266.865 0.01 C 1277.165 0.11 1287.765 -0.59 1297.865 2.21 C 1321.965 8.51 1343.565 24.11 1356.865 45.11 C 1361.265 52.11 1364.465 59.81 1366.065 67.81 C 1367.665 75.81 1367.065 84.01 1367.165 92.11 C 1367.165 139.11 1367.165 186.11 1367.165 233.11 C 1367.065 240.91 1367.565 248.71 1366.165 256.41 C 1364.165 266.71 1359.565 276.31 1353.665 284.91 C 1340.465 304.11 1320.665 318.91 1298.265 325.51 C 1287.465 328.81 1276.065 328.01 1264.865 328.11 C 876.865 328.11 488.865 328.11 100.865 328.11 C 93.365 328.01 85.865 328.41 78.365 327.51 C 68.465 326.21 58.965 322.61 50.165 317.81 C 31.665 307.71 15.965 292.11 6.665 273.21 C 3.065 265.61 0.565 257.51 0.165 249.11 C -0.135 243.81 0.065 238.41 0.065 233.11 C 0.065 185.41 0.065 137.81 0.065 90.11 C 0.065 82.81 -0.335 75.41 0.965 68.21 C 2.365 61.31 4.865 54.71 8.265 48.51 C 19.965 28.11 39.265 12.51 61.265 4.51 C 66.465 2.71 71.765 1.31 77.265 0.61 M 83.265 43.71 C 76.765 44.61 70.865 48.01 65.565 51.71 C 56.465 58.41 48.765 67.11 44.065 77.41 C 41.865 82.31 41.065 87.71 41.065 93.01 C 41.165 136.41 41.065 179.71 41.065 223.11 C 41.165 231.61 40.165 240.51 43.465 248.51 C 47.765 259.31 55.565 268.31 64.565 275.41 C 70.365 279.71 76.965 283.61 84.265 284.41 C 90.165 285.11 95.965 284.71 101.865 284.71 C 489.865 284.71 877.865 284.71 1265.865 284.71 C 1271.465 284.71 1277.065 285.01 1282.565 284.51 C 1289.165 283.81 1295.165 280.51 1300.565 276.81 C 1310.265 269.91 1318.565 260.61 1323.265 249.61 C 1325.565 244.41 1326.165 238.71 1326.165 233.11 C 1326.065 186.11 1326.165 139.11 1326.165 92.11 C 1326.265 81.41 1320.965 71.61 1314.365 63.61 C 1307.965 56.21 1300.265 49.61 1291.165 45.81 C 1283.565 42.41 1274.965 43.51 1266.865 43.41 C 884.565 43.41 502.165 43.41 119.865 43.41 C 111.565 43.41 103.165 43.51 94.865 43.31 C 90.965 43.31 87.065 43.21 83.265 43.71 Z"/>
  <path fill="#ffffff" stroke="#ffffff" stroke-width="0.09375" opacity="1.00" d="M 743.465 86.61 C 774.065 72.81 811.065 73.41 840.865 89.01 C 851.665 94.71 861.265 102.81 868.165 112.91 C 873.965 121.41 876.865 131.71 876.865 142.01 C 876.765 172.11 876.865 202.11 876.765 232.11 C 876.765 238.01 877.165 244.01 876.665 249.91 C 869.765 250.51 862.765 250.01 855.865 250.11 C 849.265 250.11 842.665 250.51 836.065 249.91 C 835.365 241.31 836.065 232.71 835.865 224.11 C 835.565 215.41 836.265 206.81 835.665 198.11 C 833.065 197.91 830.465 197.71 827.865 197.71 C 810.165 197.91 792.565 197.71 774.865 197.81 C 769.965 197.81 764.965 198.01 760.065 197.71 C 759.165 191.21 759.665 184.61 759.665 178.11 C 759.765 171.11 759.265 164.11 759.965 157.11 C 762.565 156.91 765.165 156.71 767.865 156.71 C 785.565 156.91 803.165 156.71 820.865 156.81 C 825.765 156.81 830.665 157.01 835.565 156.71 C 836.365 150.01 836.065 143.01 833.165 136.81 C 830.165 130.51 825.065 125.41 819.365 121.61 C 802.165 110.61 778.765 109.91 761.165 120.41 C 754.265 124.41 748.765 130.71 745.665 138.01 C 743.265 143.71 744.165 150.11 744.065 156.11 C 744.165 181.81 744.065 207.41 744.065 233.11 C 744.065 238.71 744.365 244.31 743.765 249.91 C 737.165 250.51 730.465 250.11 723.865 250.11 C 716.965 250.01 710.065 250.51 703.265 249.91 C 702.765 244.31 703.065 238.71 703.065 233.11 C 703.065 206.81 703.065 180.41 703.065 154.11 C 703.065 148.41 702.865 142.81 703.265 137.21 C 703.965 126.81 708.165 116.91 714.565 108.81 C 722.165 99.11 732.365 91.71 743.465 86.61 Z"/>
  <path fill="#ffffff" stroke="#ffffff" stroke-width="0.09375" opacity="1.00" d="M 102.265 78.21 C 108.765 77.51 115.365 77.91 121.865 77.91 C 128.865 78.01 135.865 77.51 142.765 78.21 C 143.465 84.51 143.065 90.81 143.065 97.11 C 143.065 130.41 143.065 163.81 143.065 197.11 C 143.065 202.71 142.765 208.21 143.265 213.81 C 145.065 213.91 146.965 214.11 148.765 214.11 C 170.865 213.91 192.865 214.01 214.865 214.01 C 219.865 213.91 224.865 214.41 229.865 213.91 C 230.165 213.61 230.965 213.21 231.265 213.01 C 229.865 212.71 228.365 212.61 226.865 212.61 C 199.265 212.71 171.565 212.61 143.865 212.71 C 148.165 211.91 152.565 212.81 156.865 212.51 C 175.865 212.61 194.865 212.51 213.865 212.61 C 219.665 212.61 225.565 212.21 231.365 212.71 C 232.365 218.81 231.765 225.01 231.865 231.11 C 231.765 237.41 232.265 243.71 231.665 249.91 C 225.765 250.51 219.765 250.11 213.865 250.11 C 182.565 250.11 151.165 250.11 119.865 250.11 C 113.965 250.11 108.065 250.51 102.265 249.91 C 101.765 244.61 102.065 239.31 102.065 234.11 C 102.065 187.41 102.065 140.81 102.065 94.11 C 102.065 88.81 101.765 83.51 102.265 78.21 Z"/>
  <path fill="#ffffff" stroke="#ffffff" stroke-width="0.09375" opacity="1.00" d="M 252.265 78.21 C 258.765 77.51 265.365 77.91 271.865 77.91 C 278.865 78.01 285.865 77.51 292.765 78.21 C 293.465 84.11 293.065 90.11 293.065 96.11 C 293.065 141.41 293.065 186.81 293.065 232.11 C 293.065 238.01 293.465 244.01 292.765 249.91 C 286.165 250.51 279.465 250.11 272.865 250.11 C 265.965 250.01 259.065 250.51 252.265 249.91 C 251.765 244.61 252.065 239.41 252.065 234.11 C 252.065 187.41 252.065 140.81 252.065 94.11 C 252.065 88.81 251.765 83.51 252.265 78.21 Z"/>
  <path fill="#ffffff" stroke="#ffffff" stroke-width="0.09375" opacity="1.00" d="M 313.265 78.21 C 315.765 78.01 318.265 77.81 320.865 77.81 C 339.165 78.01 357.565 77.81 375.865 77.91 C 393.565 77.91 411.265 77.51 428.865 78.81 C 440.965 79.61 453.265 82.11 463.865 88.01 C 473.565 93.61 481.465 102.61 484.665 113.31 C 486.865 120.71 487.565 128.51 487.265 136.11 C 487.065 142.81 484.565 149.41 480.165 154.41 C 476.965 158.31 472.465 160.91 468.665 164.11 C 472.465 167.71 477.065 170.51 480.465 174.51 C 483.865 178.31 486.165 183.11 486.865 188.21 C 487.765 193.71 487.365 199.41 486.765 205.01 C 485.865 212.01 483.865 219.11 479.865 225.11 C 475.265 232.11 468.765 237.81 461.165 241.41 C 451.765 246.01 441.365 248.31 430.865 249.01 C 420.565 249.81 410.165 250.21 399.865 250.11 C 377.165 250.11 354.565 250.11 331.865 250.11 C 325.665 250.11 319.465 250.51 313.265 249.91 C 312.765 244.61 313.065 239.31 313.065 234.11 C 313.065 187.41 313.065 140.81 313.065 94.11 C 313.065 88.81 312.765 83.51 313.265 78.21 M 354.265 114.41 C 353.765 119.91 354.065 125.51 354.065 131.11 C 354.065 153.11 354.065 175.11 354.065 197.11 C 354.065 202.71 353.765 208.21 354.265 213.81 C 357.065 214.01 359.965 214.21 362.865 214.11 C 376.165 213.91 389.565 214.21 402.965 213.91 C 413.165 213.61 423.565 213.71 433.465 210.71 C 436.965 209.61 440.665 208.21 443.365 205.61 C 447.665 201.51 446.765 193.51 441.765 190.21 C 436.465 186.71 430.065 185.81 423.865 185.21 C 412.265 184.31 400.565 184.51 388.865 184.51 C 382.565 184.51 376.265 184.91 369.965 184.11 C 369.265 177.11 369.765 170.11 369.665 163.11 C 369.665 156.61 369.165 150.11 370.065 143.61 C 387.965 143.11 405.965 144.11 423.765 142.91 C 429.965 142.21 436.465 141.51 441.665 137.91 C 445.865 135.21 447.265 129.31 445.165 124.81 C 443.565 121.71 440.365 120.01 437.265 118.61 C 429.865 115.61 421.765 114.81 413.765 114.41 C 399.865 113.81 385.865 114.21 371.865 114.11 C 365.965 114.11 360.065 113.81 354.265 114.41 Z"/>
  <path fill="#ffffff" stroke="#ffffff" stroke-width="0.09375" opacity="1.00" d="M 508.265 78.21 C 510.765 78.01 513.265 77.81 515.865 77.81 C 533.865 78.01 551.865 77.81 569.865 77.91 C 586.865 77.91 603.865 77.61 620.865 79.01 C 634.165 79.91 647.665 82.91 659.165 89.81 C 667.865 95.21 675.565 103.11 678.965 113.01 C 681.865 121.41 682.365 130.41 681.965 139.11 C 681.465 147.71 679.665 156.61 674.465 163.71 C 670.565 169.41 664.765 173.41 659.765 178.11 C 663.465 182.41 667.965 186.01 671.165 190.81 C 677.665 200.31 682.165 211.51 682.165 223.11 C 682.065 232.01 682.565 241.01 681.865 249.91 C 675.165 250.51 668.565 250.11 661.865 250.11 C 654.965 250.01 648.065 250.51 641.265 249.81 C 640.365 241.11 642.565 231.91 639.565 223.51 C 636.565 215.51 631.865 208.11 625.365 202.71 C 622.665 200.41 619.665 198.61 616.265 197.91 C 612.465 197.21 608.665 197.41 604.865 197.41 C 595.165 197.61 585.565 197.31 575.865 197.51 C 572.265 197.61 568.565 197.51 564.965 197.11 C 564.265 190.51 564.765 183.81 564.665 177.11 C 564.765 170.51 564.265 163.91 564.965 157.31 C 583.565 156.31 602.565 158.61 620.965 154.21 C 626.365 152.91 631.965 151.21 635.865 147.11 C 639.765 143.01 641.065 136.81 639.665 131.41 C 638.565 127.31 635.165 124.41 631.665 122.21 C 623.965 117.61 614.865 115.81 605.965 114.91 C 594.365 113.71 582.565 114.21 570.865 114.11 C 563.665 114.21 556.465 113.71 549.265 114.41 C 548.865 119.31 549.065 124.21 549.065 129.11 C 549.165 167.41 548.965 205.81 549.165 244.11 C 549.065 246.11 548.965 248.01 548.765 249.91 C 542.165 250.51 535.465 250.11 528.865 250.11 C 521.965 250.01 515.065 250.51 508.265 249.91 C 507.765 244.61 508.065 239.41 508.065 234.11 C 508.065 187.41 508.065 140.81 508.065 94.11 C 508.065 88.81 507.765 83.51 508.265 78.21 Z"/>
  <path fill="#ffffff" stroke="#ffffff" stroke-width="0.09375" opacity="1.00" d="M 897.265 78.21 C 899.765 78.01 902.265 77.81 904.865 77.81 C 922.865 78.01 940.865 77.81 958.865 77.91 C 975.865 77.91 992.865 77.51 1009.865 79.01 C 1023.165 79.91 1036.665 82.91 1048.165 89.81 C 1056.865 95.21 1064.565 103.11 1067.965 113.01 C 1070.865 121.41 1071.465 130.41 1070.965 139.11 C 1070.465 147.71 1068.665 156.61 1063.465 163.71 C 1059.565 169.41 1053.765 173.41 1048.765 178.11 C 1052.365 182.21 1056.665 185.71 1059.765 190.21 C 1064.265 196.61 1067.665 203.71 1069.665 211.31 C 1071.465 218.11 1071.165 225.11 1071.165 232.11 C 1071.165 238.01 1071.465 244.01 1070.865 249.91 C 1064.165 250.51 1057.565 250.11 1050.865 250.11 C 1043.965 250.11 1037.065 250.51 1030.265 249.81 C 1029.365 240.81 1031.665 231.41 1028.265 222.71 C 1024.665 213.81 1018.965 205.41 1010.865 200.11 C 1006.365 197.31 1000.965 197.31 995.865 197.41 C 988.265 197.51 980.565 197.51 972.865 197.51 C 966.565 197.41 960.265 197.81 953.965 197.11 C 953.265 190.51 953.765 183.81 953.665 177.11 C 953.765 170.51 953.265 163.91 953.965 157.31 C 971.265 156.31 988.665 158.31 1005.865 155.11 C 1012.165 153.91 1018.865 152.41 1023.765 148.11 C 1028.765 143.91 1030.365 136.61 1028.365 130.61 C 1026.965 126.41 1023.165 123.61 1019.465 121.51 C 1010.665 116.71 1000.465 115.21 990.565 114.51 C 980.065 113.81 969.465 114.21 958.865 114.11 C 951.965 114.21 945.065 113.71 938.265 114.41 C 937.865 119.31 938.065 124.21 938.065 129.11 C 938.165 167.41 937.965 205.81 938.165 244.11 C 938.065 246.11 937.965 248.01 937.765 249.91 C 931.165 250.51 924.465 250.11 917.865 250.11 C 910.965 250.01 904.065 250.51 897.265 249.91 C 896.765 244.61 897.065 239.31 897.065 234.11 C 897.065 187.41 897.065 140.81 897.065 94.11 C 897.065 88.81 896.765 83.51 897.265 78.21 Z"/>
  <path fill="#ffffff" stroke="#ffffff" stroke-width="0.09375" opacity="1.00" d="M 1091.265 78.21 C 1097.765 77.51 1104.365 77.91 1110.865 77.91 C 1117.865 78.01 1124.865 77.51 1131.765 78.21 C 1132.465 84.11 1132.065 90.11 1132.065 96.11 C 1132.065 105.81 1132.165 115.41 1131.965 125.11 C 1131.965 129.81 1131.865 134.71 1133.765 139.11 C 1137.065 146.61 1142.765 153.01 1149.965 157.01 C 1167.565 167.01 1190.765 166.21 1207.765 155.01 C 1213.665 151.01 1218.865 145.61 1221.665 139.01 C 1224.065 133.31 1223.865 127.11 1223.865 121.11 C 1223.765 109.81 1223.965 98.41 1223.765 87.11 C 1223.665 84.11 1223.765 81.21 1224.065 78.21 C 1230.965 77.51 1237.965 78.01 1244.865 77.91 C 1251.465 77.91 1258.065 77.51 1264.665 78.21 C 1265.165 84.51 1264.765 90.81 1264.765 97.11 C 1264.865 108.41 1264.765 119.81 1264.865 131.11 C 1264.865 136.91 1264.765 142.81 1263.165 148.41 C 1260.165 160.11 1252.865 170.31 1243.765 178.01 C 1232.665 187.51 1218.865 193.71 1204.665 196.91 C 1202.565 197.41 1200.565 198.01 1198.465 198.71 C 1197.765 206.81 1198.465 215.01 1198.265 223.11 C 1197.965 232.01 1198.765 241.01 1197.865 249.91 C 1190.865 250.51 1183.865 250.01 1176.865 250.11 C 1170.365 250.11 1163.865 250.51 1157.365 249.81 C 1156.865 240.61 1157.465 231.31 1157.265 222.11 C 1157.065 214.21 1157.965 206.31 1156.765 198.51 C 1152.265 197.01 1147.665 196.11 1143.265 194.71 C 1130.565 190.71 1118.365 184.51 1108.765 175.21 C 1100.965 167.71 1094.865 158.21 1092.365 147.51 C 1091.065 141.81 1090.965 135.91 1091.065 130.11 C 1091.165 119.11 1091.065 108.11 1091.065 97.11 C 1091.165 90.81 1090.765 84.51 1091.265 78.21 Z"/>
</svg>

<?xml version="1.0" encoding="UTF-8" standalone="no"?><svg viewBox="0 0 1367.2 328.1" version="1.1" id="svg2" xmlns="http://www.w3.org/2000/svg" xmlns:svg="http://www.w3.org/2000/svg"><path fill="currentColor" stroke="currentColor" stroke-width=".09" d="M77.27.61c2.8-.4 5.7-.5 8.6-.6h1181c10.3.1 20.9-.6 31 2.2 24.1 6.3 45.7 21.9 59 42.9 4.4 7 7.6 14.7 9.2 22.7s1 16.2 1.1 24.3v141c-.1 7.8.4 15.6-1 23.3-2 10.3-6.6 19.9-12.5 28.5-13.2 19.2-33 34-55.4 40.6-10.8 3.3-22.2 2.5-33.4 2.6h-1164c-7.5-.1-15 .3-22.5-.6-9.9-1.3-19.4-4.9-28.2-9.7-18.5-10.1-34.2-25.7-43.5-44.6-3.6-7.6-6.1-15.7-6.5-24.1-.3-5.3-.1-10.7-.1-16v-143c0-7.3-.4-14.7.9-21.9 1.4-6.9 3.9-13.5 7.3-19.7 11.7-20.4 31-36 53-44 5.2-1.8 10.5-3.2 16-3.9m6 43.1c-6.5.9-12.4 4.3-17.7 8-9.1 6.7-16.8 15.4-21.5 25.7-2.2 4.9-3 10.3-3 15.6.1 43.4 0 86.7 0 130.1.1 8.5-.9 17.4 2.4 25.4 4.3 10.8 12.1 19.8 21.1 26.9 5.8 4.3 12.4 8.2 19.7 9 5.9.7 11.7.3 17.6.3h1164c5.6 0 11.2.3 16.7-.2 6.6-.7 12.6-4 18-7.7 9.7-6.9 18-16.2 22.7-27.2 2.3-5.2 2.9-10.9 2.9-16.5-.1-47 0-94 0-141 .1-10.7-5.2-20.5-11.8-28.5-6.4-7.4-14.1-14-23.2-17.8-7.6-3.4-16.2-2.3-24.3-2.4h-1147c-8.3 0-16.7.1-25-.1-3.9 0-7.8-.1-11.6.4Z" id="path1" style="fill:#ffffff"/><path fill="currentColor" stroke="currentColor" stroke-width=".09" d="M743.47 86.61c30.6-13.8 67.6-13.2 97.4 2.4 10.8 5.7 20.4 13.8 27.3 23.9 5.8 8.5 8.7 18.8 8.7 29.1-.1 30.1 0 60.1-.1 90.1 0 5.9.4 11.9-.1 17.8-6.9.6-13.9.1-20.8.2-6.6 0-13.2.4-19.8-.2-.7-8.6 0-17.2-.2-25.8-.3-8.7.4-17.3-.2-26-2.6-.2-5.2-.4-7.8-.4-17.7.2-35.3 0-53 .1-4.9 0-9.9.2-14.8-.1-.9-6.5-.4-13.1-.4-19.6.1-7-.4-14 .3-21 2.6-.2 5.2-.4 7.9-.4 17.7.2 35.3 0 53 .1 4.9 0 9.8.2 14.7-.1.8-6.7.5-13.7-2.4-19.9-3-6.3-8.1-11.4-13.8-15.2-17.2-11-40.6-11.7-58.2-1.2-6.9 4-12.4 10.3-15.5 17.6-2.4 5.7-1.5 12.1-1.6 18.1.1 25.7 0 51.3 0 77 0 5.6.3 11.2-.3 16.8-6.6.6-13.3.2-19.9.2-6.9-.1-13.8.4-20.6-.2-.5-5.6-.2-11.2-.2-16.8v-79c0-5.7-.2-11.3.2-16.9.7-10.4 4.9-20.3 11.3-28.4 7.6-9.7 17.8-17.1 28.9-22.2Zm-641.2-8.4c6.5-.7 13.1-.3 19.6-.3 7 .1 14-.4 20.9.3.7 6.3.3 12.6.3 18.9v100c0 5.6-.3 11.1.2 16.7 1.8.1 3.7.3 5.5.3 22.1-.2 44.1-.1 66.1-.1 5-.1 10 .4 15-.1.3-.3 1.1-.7 1.4-.9-1.4-.3-2.9-.4-4.4-.4-27.6.1-55.3 0-83 .1 4.3-.8 8.7.1 13-.2 19 .1 38 0 57 .1 5.8 0 11.7-.4 17.5.1 1 6.1.4 12.3.5 18.4-.1 6.3.4 12.6-.2 18.8-5.9.6-11.9.2-17.8.2h-94c-5.9 0-11.8.4-17.6-.2-.5-5.3-.2-10.6-.2-15.8v-140c0-5.3-.3-10.6.2-15.9Zm150 0c6.5-.7 13.1-.3 19.6-.3 7 .1 14-.4 20.9.3.7 5.9.3 11.9.3 17.9v136c0 5.9.4 11.9-.3 17.8-6.6.6-13.3.2-19.9.2-6.9-.1-13.8.4-20.6-.2-.5-5.3-.2-10.5-.2-15.8v-140c0-5.3-.3-10.6.2-15.9Zm61 0c2.5-.2 5-.4 7.6-.4 18.3.2 36.7 0 55 .1 17.7 0 35.4-.4 53 .9 12.1.8 24.4 3.3 35 9.2 9.7 5.6 17.6 14.6 20.8 25.3 2.2 7.4 2.9 15.2 2.6 22.8a29.2 29.2 0 0 1-7.1 18.3c-3.2 3.9-7.7 6.5-11.5 9.7 3.8 3.6 8.4 6.4 11.8 10.4a26 26 0 0 1 6.4 13.7c.9 5.5.5 11.2-.1 16.8-.9 7-2.9 14.1-6.9 20.1-4.6 7-11.1 12.7-18.7 16.3-9.4 4.6-19.8 6.9-30.3 7.6-10.3.8-20.7 1.2-31 1.1h-68c-6.2 0-12.4.4-18.6-.2-.5-5.3-.2-10.6-.2-15.8v-140c0-5.3-.3-10.6.2-15.9m41 36.2c-.5 5.5-.2 11.1-.2 16.7v66c0 5.6-.3 11.1.2 16.7 2.8.2 5.7.4 8.6.3 13.3-.2 26.7.1 40.1-.2 10.2-.3 20.6-.2 30.5-3.2 3.5-1.1 7.2-2.5 9.9-5.1 4.3-4.1 3.4-12.1-1.6-15.4-5.3-3.5-11.7-4.4-17.9-5-11.6-.9-23.3-.7-35-.7-6.3 0-12.6.4-18.9-.4-.7-7-.2-14-.3-21 0-6.5-.5-13 .4-19.5 17.9-.5 35.9.5 53.7-.7 6.2-.7 12.7-1.4 17.9-5 4.2-2.7 5.6-8.6 3.5-13.1-1.6-3.1-4.8-4.8-7.9-6.2-7.4-3-15.5-3.8-23.5-4.2-13.9-.6-27.9-.2-41.9-.3-5.9 0-11.8-.3-17.6.3Zm154-36.2c2.5-.2 5-.4 7.6-.4 18 .2 36 0 54 .1 17 0 34-.3 51 1.1 13.3.9 26.8 3.9 38.3 10.8 8.7 5.4 16.4 13.3 19.8 23.2 2.9 8.4 3.4 17.4 3 26.1-.5 8.6-2.3 17.5-7.5 24.6-3.9 5.7-9.7 9.7-14.7 14.4 3.7 4.3 8.2 7.9 11.4 12.7 6.5 9.5 11 20.7 11 32.3-.1 8.9.4 17.9-.3 26.8-6.7.6-13.3.2-20 .2-6.9-.1-13.8.4-20.6-.3-.9-8.7 1.3-17.9-1.7-26.3-3-8-7.7-15.4-14.2-20.8-2.7-2.3-5.7-4.1-9.1-4.8-3.8-.7-7.6-.5-11.4-.5-9.7.2-19.3-.1-29 .1-3.6.1-7.3 0-10.9-.4-.7-6.6-.2-13.3-.3-20 .1-6.6-.4-13.2.3-19.8 18.6-1 37.6 1.3 56-3.1 5.4-1.3 11-3 14.9-7.1s5.2-10.3 3.8-15.7c-1.1-4.1-4.5-7-8-9.2-7.7-4.6-16.8-6.4-25.7-7.3-11.6-1.2-23.4-.7-35.1-.8-7.2.1-14.4-.4-21.6.3-.4 4.9-.2 9.8-.2 14.7.1 38.3-.1 76.7.1 115-.1 2-.2 3.9-.4 5.8-6.6.6-13.3.2-19.9.2-6.9-.1-13.8.4-20.6-.2-.5-5.3-.2-10.5-.2-15.8v-140c0-5.3-.3-10.6.2-15.9Zm389 0c2.5-.2 5-.4 7.6-.4 18 .2 36 0 54 .1 17 0 34-.4 51 1.1 13.3.9 26.8 3.9 38.3 10.8 8.7 5.4 16.4 13.3 19.8 23.2 2.9 8.4 3.5 17.4 3 26.1-.5 8.6-2.3 17.5-7.5 24.6-3.9 5.7-9.7 9.7-14.7 14.4 3.6 4.1 7.9 7.6 11 12.1 4.5 6.4 7.9 13.5 9.9 21.1 1.8 6.8 1.5 13.8 1.5 20.8 0 5.9.3 11.9-.3 17.8-6.7.6-13.3.2-20 .2-6.9 0-13.8.4-20.6-.3-.9-9 1.4-18.4-2-27.1-3.6-8.9-9.3-17.3-17.4-22.6-4.5-2.8-9.9-2.8-15-2.7-7.6.1-15.3.1-23 .1-6.3-.1-12.6.3-18.9-.4-.7-6.6-.2-13.3-.3-20 .1-6.6-.4-13.2.3-19.8 17.3-1 34.7 1 51.9-2.2 6.3-1.2 13-2.7 17.9-7 5-4.2 6.6-11.5 4.6-17.5-1.4-4.2-5.2-7-8.9-9.1-8.8-4.8-19-6.3-28.9-7-10.5-.7-21.1-.3-31.7-.4-6.9.1-13.8-.4-20.6.3-.4 4.9-.2 9.8-.2 14.7.1 38.3-.1 76.7.1 115-.1 2-.2 3.9-.4 5.8-6.6.6-13.3.2-19.9.2-6.9-.1-13.8.4-20.6-.2-.5-5.3-.2-10.6-.2-15.8v-140c0-5.3-.3-10.6.2-15.9Zm194 0c6.5-.7 13.1-.3 19.6-.3 7 .1 14-.4 20.9.3.7 5.9.3 11.9.3 17.9 0 9.7.1 19.3-.1 29 0 4.7-.1 9.6 1.8 14 3.3 7.5 9 13.9 16.2 17.9 17.6 10 40.8 9.2 57.8-2 5.9-4 11.1-9.4 13.9-16 2.4-5.7 2.2-11.9 2.2-17.9-.1-11.3.1-22.7-.1-34-.1-3 0-5.9.3-8.9 6.9-.7 13.9-.2 20.8-.3 6.6 0 13.2-.4 19.8.3.5 6.3.1 12.6.1 18.9.1 11.3 0 22.7.1 34 0 5.8-.1 11.7-1.7 17.3-3 11.7-10.3 21.9-19.4 29.6-11.1 9.5-24.9 15.7-39.1 18.9-2.1.5-4.1 1.1-6.2 1.8-.7 8.1 0 16.3-.2 24.4-.3 8.9.5 17.9-.4 26.8-7 .6-14 .1-21 .2-6.5 0-13 .4-19.5-.3-.5-9.2.1-18.5-.1-27.7-.2-7.9.7-15.8-.5-23.6-4.5-1.5-9.1-2.4-13.5-3.8-12.7-4-24.9-10.2-34.5-19.5-7.8-7.5-13.9-17-16.4-27.7-1.3-5.7-1.4-11.6-1.3-17.4.1-11 0-22 0-33 .1-6.3-.3-12.6.2-18.9Z" id="path2" style="fill:#ffffff"/></svg>
